X:212
M:4/4
L:1/4
K:Bb
G2 G E | F G E D | C2 G2 | G F B G | E F G2 | G2 B c | e d c =B | c2 c2 | d c B A | G ^F G2 | c2 B A | B G G F | E2 !sintro!G2 | _A G E F | E D !fermata!C2 !eintro!|]
